X:1
T:Title
%%score ( 1 2 ) ( 3 4 )
L:1/8
M:6/8
K:Bb
V:1 treble nm="Choir Aahs, Unnamed-000"
V:2 treble 
V:3 bass nm="Choir Aahs, Wonderful Peace"
V:4 bass 
V:1
 [DF][B,D][CE] [DF][DG][DA] | [DB][_DA][DG] [=DF]3 | [DF]>[EG][DF] [EA]3 | [EF]>[EG][EF] [DB]3 | %4
w: By~Haldor~Lillenas,~circa~1914 * * * * *||||
 [DF][B,D][CE] [DF][DG][DA] | [DB][_DA][DG] [=DF][DF][DG] | [CA]3 [=EG]3 | c6 | [DF]3 [Fd]3 | %9
w: |||||
 [=Ed]>[Ec][EB] [EG]3 | [EF]3 [Ec]3 | [Dc]>[DB][DG] [DF]3 | [EG][E^F][EG] [_DB][DA][DG] | %13
w: ||||
 [DF][FB][Fd] [Ff][Ge][Fd] | G3 A3 | B6 |] %16
w: |||
V:2
 x6 | x6 | x6 | x6 | x6 | x6 | x6 | FCD E3 | x6 | x6 | x6 | x6 | x6 | x6 | F2 =E _E2 C | DFE D3 |] %16
V:3
 [B,,F,][B,,F,][B,,F,] [B,,B,][B,,B,][B,,B,] | z3 .F,3 | [B,,B,]>[B,,B,][B,,B,] [F,C]3 | %3
 [F,A,]>[F,A,][F,A,] [B,,B,]3 | [B,,F,][B,,F,][B,,F,] [B,,B,][B,,B,][B,,B,] | %5
 [B,,F,][B,,=E,][B,,E,] [B,,F,][B,,B,][B,,B,] | [F,A,]3 [C,B,]3 | A,A,B, A,3 | [B,,B,]3 [B,,B,]3 | %9
 [C,G,]>[C,G,][C,G,] [C,B,]3 | [F,A,]3 [F,A,]3 | [B,,B,]>[B,,B,][B,,B,] [B,,B,]3 | %12
 [E,B,][E,A,][E,B,] [=E,G,][E,A,][E,B,] | [F,B,][D,B,][B,,B,] [D,B,][C,C][G,=B,] | [G,C]3 [F,C]3 | %15
 B,A,G, F,3 |] %16
V:4
 x6 | [B,,F,][B,,=E,][B,,E,] B,,2- [B,,B,] | x6 | x6 | x6 | x6 | x6 | F,6 | x6 | x6 | x6 | x6 | %12
 x6 | x6 | x6 | B,,6 |] %16

